images/icon/white-vk-logo.svg

<svg width="25" height="24" viewBox="0 0 25 24" fill="none" xmlns="http://www.w3.org/2000/svg">
<path d="M16.6029 0H9.23495C2.51095 0 0.918945 1.592 0.918945 8.316V15.684C0.918945 22.408 2.51095 24 9.23495 24H16.6029C23.3269 24 24.9189 22.408 24.9189 15.684V8.316C24.9189 1.592 23.3099 0 16.6029 0ZM20.2949 17.123H18.5509C17.8909 17.123 17.6869 16.598 16.5009 15.396C15.4679 14.396 15.0109 14.261 14.7569 14.261C14.4009 14.261 14.2989 14.363 14.2989 14.854V16.429C14.2989 16.853 14.1639 17.107 13.0459 17.107C11.1999 17.107 9.14995 15.989 7.71095 13.905C5.54295 10.857 4.94895 8.57 4.94895 8.096C4.94895 7.842 5.05095 7.605 5.54195 7.605H7.28595C7.72595 7.605 7.89595 7.808 8.06595 8.282C8.92895 10.772 10.3689 12.957 10.9619 12.957C11.1819 12.957 11.2839 12.855 11.2839 12.297V9.721C11.2159 8.535 10.5889 8.434 10.5889 8.011C10.5889 7.807 10.7589 7.604 11.0289 7.604H13.7729C14.1459 7.604 14.2809 7.807 14.2809 8.247V11.72C14.2809 12.092 14.4509 12.228 14.5519 12.228C14.7719 12.228 14.9589 12.092 15.3649 11.686C16.6189 10.28 17.5159 8.112 17.5159 8.112C17.6349 7.858 17.8379 7.621 18.2789 7.621H20.0229C20.5479 7.621 20.6669 7.891 20.5479 8.264C20.3279 9.281 18.1939 12.295 18.1939 12.295C18.0079 12.6 17.9399 12.735 18.1939 13.075C18.3799 13.329 18.9899 13.854 19.3969 14.328C20.1419 15.175 20.7169 15.886 20.8699 16.378C21.0399 16.868 20.7849 17.122 20.2939 17.122L20.2949 17.123Z" fill="white"/>
</svg>

<svg width="25" height="24" fill="none" xmlns="http://www.w3.org/2000/svg"><path d="M16.603 0H9.235C2.51 0 .919 1.592.919 8.316v7.368C.919 22.408 2.51 24 9.235 24h7.368c6.724 0 8.316-1.592 8.316-8.316V8.316c0-6.724-1.61-8.316-8.316-8.316zm3.692 17.123H18.55c-.66 0-.864-.525-2.05-1.727-1.033-1-1.49-1.135-1.744-1.135-.356 0-.458.102-.458.593v1.575c0 .424-.135.678-1.253.678-1.846 0-3.896-1.118-5.335-3.202-2.168-3.048-2.762-5.335-2.762-5.809 0-.254.102-.491.593-.491h1.744c.44 0 .61.203.78.677.863 2.49 2.303 4.675 2.896 4.675.22 0 .322-.102.322-.66V9.721c-.068-1.186-.695-1.287-.695-1.71 0-.204.17-.407.44-.407h2.744c.373 0 .508.203.508.643v3.473c0 .372.17.508.27.508.22 0 .408-.136.814-.542 1.254-1.406 2.15-3.574 2.15-3.574.12-.254.323-.491.764-.491h1.744c.525 0 .644.27.525.643-.22 1.017-2.354 4.031-2.354 4.031-.186.305-.254.44 0 .78.186.254.796.779 1.203 1.253.745.847 1.32 1.558 1.473 2.05.17.49-.085.744-.576.744v.001z" fill="#fff"/></svg>
